X: 33507
T: Rain On The Woodpile
R: reel
M: 4/4
K: Aminor
|:A2 cA GAcd|ecde dcAG|A2cA GAce|dcAB cABG|
A2cA GAce|dcAB c3B|ABAG EGce|1 dcAB cABG:|2 dcAB cdeg||
|:a3a gefe|dcAB cdeg|a2c'a gefe|dcAB cABG|
A2a2 gefe|dcAB c3B|ABAG EGce|1 dcAB cdeg:|2 dcAB cABG||

